!!!!SEGMENT: pl-wumfc--r282--001-012_paderewski-ignacy-jan--exercises-1-exercise-12.krn
!!!cenid: 18xx:3171
!!!COM: Paderewski, Ignacy Jan
!!!COM-rismID: pe30029943
!!!CDT: 1860/11/18-1941/06/29
!!!CNT: Polish
!!!GTL: [Exercises 1]
!!!OTL: [Exercise] 12
!!!OMV: 012
!!!PDT:
!!!AGN:
!!!SMS-siglum: PL-Wumfc
!!!SMS-shelfmark: R282
!!!SMS-shelfwork: 001-012 G
!!!SMS-variant:
!!!SMS-altvar:
!!!NIFC-rismSourceID: 1001158933
!!!NIFC-islandoraID: pl-wumfc:419
!!!URL-pdf-islandora: https://repozytorium.nifc.pl/islandora/object/pl-wumfc%3A419/datastream/PDF/view
!!!URL-scan: https://polish.musicsources.pl/pl/lokalizacje/galeria/rekopisy/4702 @EN{Scan on Polish Music Sources Website} @PL{Skany w portalu Dziedzictwo Muzyki Polskiej w otwartym dostępie}
!!!ONB-nifc: UWAGA: pierwsza grupa ćwiczeń na skanach 0004-0007
!!!AIN: 2 piano
!!!key: G
**kern	**kern
*part2	*part1
*group1	*group1
*staff2	*staff1
*I"[Pianoforte]	*I"[Pianoforte]
*	*I'
*Ipiano	*Ipiano
*ICklav	*ICklav
*clefF4	*clefG2
*k[]	*k[]
*G:	*G:
*M	*M
*>[A,A,B]	*>[A,A,B]
=1	=1
*>A	*>A
!!LO:TX:t=P:problem:brak kluczy na początku ćwiczenia
!	!LO:TX:a:t=C.f.
4G\	2g/
4g\	.
!LO:SIC:v:s=4f#\	!
4f\	2a/
4e\	.
=2	=2
4d\	2b/
4c\	.
4B\	2dd/
4A\	.
=3	=3
4B\	2g/
4c\	.
!	!LO:SIC:v:s=2f#/
4d\	2f/
4D\	.
=4	=4
4E\	1e
!LO:SIC:v:s=4F#\	!
4F\	.
4G\	.
4A\	.
=5	=5
4B\	1d
4c\	.
4B\	.
4A\	.
=6	=6
1G;	1d;
=7	=7
4c\	2e/
4B\	.
!	!LO:SIC:v:s=2f#/
4A\	2f/
4d\	.
=8	=8
4B\	2g/
4G\	.
!LO:SIC:v:s=4F#\	!
4F\	2a/
4E\	.
=9	=9
4D\	2b/
4E\	.
!LO:SIC:v:s=4F#\	!
4F\	2a/
4D\	.
=10	=10
1G	1g
!!linebreak:original
=11:|!	=11:|!
*>B	*>B
4G\	2b\
4A\	.
4B\	2b\
4c\	.
=12	=12
4d\	2a/
4c\	.
4B\	2b/
4G#X\	.
=13	=13
4A\	2cc/
4C\	.
4D\	2b/
4E\	.
=14	=14
1AA;<	1a;
=15	=15
4C\	2e/
4c\	.
!	!LO:SIC:v:s=2f#/
4B\	2f/
4A\	.
=16	=16
4G\	2g/
4E\	.
4D\	2a/
4C\	.
=17	=17
4D\	2b/
4E\	.
!LO:SIC:v:s=4F#\	!
4F\	2a/
4D\	.
=18	=18
1G;	1g;
==	==
*-	*-
!!!system-decoration: [(g1)]
!!!RDF**kern: > = above
!!!RDF**kern: < = below
!!!ENC: Katarzyna Serwa
!!!END: 2021-11-16
!!!ENC: Berenika Jozajtis
!!!END: 2021-11-11
